X:92
T:The Skylark
R:reel
N:20th century Irish
C:James Morrison
L:1/8
M:4/4
K:D
f |agfg efdB|AFF2 DFAd|BGG2 EFGE|FAA2 FAdf|
 agfg efdB|AFF2 DFAd|BGG2 Abag|faeg fdd:|
|: f|a2 fd Adfd|efed cAAf|a2 fa bafd|Beed efge|
faaf gbbg|faef dBAG|FAdA GBeB|cbag fdd:|
